library/css/icons/svgs/fi-tablet-landscape.svg

<svg xmlns="http://www.w3.org/2000/svg" width="100" height="100" viewBox="0 0 100 100"><path fill="#231F20" d="M92.566 22.081c0-1.676-1.358-3.035-3.035-3.035h-79.062c-1.676 0-3.035 1.359-3.035 3.035l.013.127h-.013v55.838h.013c.068 1.616 1.389 2.908 3.022 2.908h79.062c1.633 0 2.954-1.292 3.022-2.908h.013v-55.838h-.013l.013-.127zm-9.957 48.916h-65.218v-41.994h65.219v41.994zm4.978-18.386c-1.372 0-2.484-1.112-2.484-2.484 0-1.372 1.112-2.484 2.484-2.484 1.372 0 2.485 1.112 2.485 2.484 0 1.372-1.113 2.484-2.485 2.484z"/></svg>

<?xml version="1.0" encoding="utf-8"?>
<!-- Generator: Adobe Illustrator 17.0.0, SVG Export Plug-In . SVG Version: 6.00 Build 0)  -->
<!DOCTYPE svg PUBLIC "-//W3C//DTD SVG 1.1//EN" "http://www.w3.org/Graphics/SVG/1.1/DTD/svg11.dtd">
<svg version="1.1" id="Layer_1" xmlns="http://www.w3.org/2000/svg" xmlns:xlink="http://www.w3.org/1999/xlink" x="0px" y="0px"
	 width="100px" height="100px" viewBox="0 0 100 100" enable-background="new 0 0 100 100" xml:space="preserve">
<g>
	<path fill="#231F20" d="M92.566,22.081c0-1.676-1.358-3.035-3.035-3.035H10.469c-1.676,0-3.035,1.359-3.035,3.035
		c0,0.043,0.011,0.084,0.013,0.127H7.434v55.838h0.013c0.068,1.616,1.389,2.908,3.022,2.908h79.062c1.633,0,2.954-1.292,3.022-2.908
		h0.013V22.208h-0.013C92.555,22.164,92.566,22.124,92.566,22.081z M82.609,70.997H17.391V29.003h65.219V70.997z M87.587,52.611
		c-1.372,0-2.484-1.112-2.484-2.484c0-1.372,1.112-2.484,2.484-2.484c1.372,0,2.485,1.112,2.485,2.484
		C90.072,51.499,88.959,52.611,87.587,52.611z"/>
</g>
</svg>
